www/assets/icons/perm_scan_wifi.svg

<svg xmlns="http://www.w3.org/2000/svg" width="24" height="24" viewBox="0 0 24 24" fill='currentColor'><path d="M12 2.5c-5.05 0-8.85 1.85-12 4.23L12 21.5 24 6.75C20.85 4.37 17.05 2.5 12 2.5m1 13h-2v-6h2zm-2-8v-2h2v2z"/></svg>

<svg width="24" height="24" viewBox="0 0 24 24" xmlns="http://www.w3.org/2000/svg" fill='currentColor'><path d="M12 2.5C6.95 2.5 3.15 4.35 0 6.73L12 21.5L24 6.75C20.85 4.37 17.05 2.5 12 2.5ZM13 15.5H11V9.5H13V15.5ZM11 7.5V5.5H13V7.5H11Z"/></svg>
